!!!OTL@@DE: Br&uuml;derlein fein
!!!COM: Drechsler, Josef
!!!CDT: 1826
!!!OPR: Aus dem Zauberm&auml;rchen: "Der Bauer als Million&auml;r"
!!!OMD: Andantino
!!!LYR: Raimund, Ferdinand
!!!LDT: 1826
!!!OCL: Erk, Ludwig
!!!GCO: Deutscher Liederschatz, Band 1
**kern	**kern	**kern
*staff3	*staff2	*staff1
*Ipiano	*Ipiano	*Ivox
=1-	=1-	=1-
*clefF4	*clefG2	*clefG2
*k[f#]	*k[f#]	*k[f#]
*G:	*G:	*G:
*M6/8	*M6/8	*M6/8
*MM74	*MM74	*MM74
(8GG/L	8.d/ 8.b/L	8.b/
8D/	.	.
.	16c#/ 16a#/k	16a#/
8G/J)	8d/ 8b/J	8b/
(8GG/L	4.B/ 4.g/	4.g/
8D/	.	.
8G/J)	.	.
=2	=2	=2
(8GG/L	8.d/ 8.b/L	8.b/
8D/	.	.
.	16c#/ 16a#/k	16a#/
8G/J)	8d/ 8b/J	8b/
(8GG/L	4.B/ 4.g/	4.g/
8D/	.	.
8G/J)	.	.
=3	=3	=3
8GG/L	4cn/ 4d/ 4an/	4an/
8D/	.	.
8F#/J	8c/ 8d/ 8a/	8a/
8GG/L	4c/ 4d/ 4f#/	4ee\
8D/	.	.
8A/J	8c/ 8d/ 8f#/	8dd\
=4	=4	=4
8GG/L	4B/ 4d/ 4g/	8cc\L
8D/	.	8b\J
8F#/J	8c/ 8d/	16a/LL
.	.	16b/JJ
8GG/L	4.B/ 4.d/	4.g/
8D/	.	.
8G/J	.	.
=5	=5	=5
8GG/L	8.d/ 8.b/L	8.b/
8D/	.	.
.	16c#/ 16a#/k	16a#/
8G/J	8d/ 8b/J	8b/
8GG/L	4.B/ 4.g/	4.g/
8D/	.	.
8G/J	.	.
=6	=6	=6
8GG/L	8.d/ 8.b/L	8.b/
8D/	.	.
.	16c#/ 16a#/k	16a#/
8G/J	8d/ 8b/J	8b/
8GG/L	4.B/ 4.g/	4.g/
8D/	.	.
8G/J	.	.
=7	=7	=7
*	*^	*
8C\L	4an/	4.e\	4an/
8E\	.	.	.
8A\J	8a/	.	8a/
8D\L	4ee/	4.f#\	4ee\
8A\	.	.	.
8c\J	8dd/	.	8dd\
*	*v	*v	*
=8	=8	=8
8G\L	4.B/ 4.g/	4.g/
8D\	.	.
8BB\J	.	.
4GG/	4r	4r
8r	8r	8r
=9	=9	=9
8F#\L	4a/	4a/
8c\	.	.
8d\J	8a/	8a/
*	*^	*
8D\L	4ee/	4.f#\	4ee^\
8c\	.	.	.
8d\J	8dd/	.	8dd\
*	*v	*v	*
=10	=10	=10
8G\L	8g/ (8cc/L	8cc\L
8d\	8b/	8b\J
8c\J	16a/L	16a/LL
.	16b/JJ)	16b/JJ
8B\L	4.g/	4.g/
8A\	.	.
8G\J	.	.
=11	=11	=11
8F#\L	4a/	4a/
8c\	.	.
8d\J	8a/	8a/
*	*^	*
8D\L	4ee/	4.f#\	4ee^\
8c\	.	.	.
8d\J	8dd/	.	8dd\
*	*v	*v	*
=12	=12	=12
8G\L	8g/ (8cc/L	8cc\L
8B\	8b/	8b\J
8d\J	16a/L	16a/LL
.	16b/JJ)	16b/JJ
8G\L	4.B/ 4.g/	4.g/
8D\	.	.
8BB\J	.	.
=13	=13	=13
8GG/L	8.d/ 8.b/L	8.b/
8D/	.	.
.	16c#/ 16a#/k	16a#/
8G/J	8d/ 8b/J	8b/
8GG/L	4.B/ 4.g/	4.g/
8D/	.	.
8G/J	.	.
=14	=14	=14
8GG/L	8.d/ 8.b/L	8.b/
8D/	.	.
.	16c#/ 16a#/k	16a#/
8G/J	8d/ 8b/J	8b/
8GG/L	4.B/ 4.g/	4.g/
8D/	.	.
8G/J	.	.
=15	=15	=15
*	*^	*
8C\L	4an/	4.e\	4an/
8E\	.	.	.
8A\J	8a/	.	8a/
8D\L	4ee/	4.f#\	4ee^\
8A\	.	.	.
8c\J	8dd/	.	8dd\
*	*v	*v	*
=16	=16	=16
8G\L	4.B/ 4.g/	4.g/
8D\	.	.
8BB\J	.	.
4GG/	4r	4r
8r	8r	8r
==	==	==
*-	*-	*-
!!!ENC: Craig Stuart Sapp
!!!END: 2004/05/18/
!!!EFL: 016/651
